X:1
T:Title
%%score ( 1 2 ) { 3 | 4 }
L:1/8
Q:1/4=115
M:3/4
K:G
V:1 treble nm="Grand Piano, Staff 1"
V:2 treble 
V:3 treble nm="Choir Pad, Bishopthorpe, CM"
V:4 bass 
V:1
 dc B3 A | [DG]2 [DF]2 [CE]2 | [Cc]2 BA G2 | [DF]2 [DG]4 | [FA]2 B3 c | [Gd]2 [Gd]2 [Ac]2 | %6
w: By~Jeremiah~Clark~(1670\-1707) * * *||||||
 [GB]2 [GB]2 [FA]2 | [Ad]2 [^Gd]2 [Ac]2 | [^GB]2 [Ac]4 | [Ec]2 [Fc]2 [GB]2 | [FA]2 [FA]2 [GB]2 | %11
w: |||||
 dc B3 A | GF EA [DG]2 | [DF]2 [DG]4- | [DG]4 z2 |] %15
w: ||||
V:2
 F2 G4 | x6 | z2 D4 | x6 | z2 G4 | x6 | x6 | x6 | x6 | x6 | x6 | D2 D4 | D2 z2 z2 | x6 | x6 |] %15
V:3
 D2 D3 C | B,2 G,4 | G,2 G,A, B,2 | A,2 G,4 | C2 D4 | B,2 E2 D2 | D2 D4 | D2 B,2 E2 | E2 E4 | %9
 A,2 A,2 D2 | C2 C2[K:bass] B,2 | A,2 G,3 A, | B,2 G,C B,2 | A,2 B,4- | B,4 z2 |] %15
V:4
 D,2 G,4 | B,,2 C,4 | E,2 D,4 | C,2 B,,4 | A,,2 G,,4 | G,2 E,2 F,2 | G,2 D,4 | =F,2 E,4 | %8
 E,2 A,,4 | A,,2 D,4 | D,2 G,4 | F,2 z2 z2 | B,,2 C,2 D,2 | D,2 G,,4- | G,,4 z2 |] %15

